X: 149
T: Road to Skye
T: Jig, A
L: 1/16
M: 6/8
K: A
|: A2G2F2 E2C2E2| A2c2e2 f4e2| a2c2c2 c2B2c2| d2F2F2 F4E2| A2G2F2 E2C2E2| A2c2e2 f4e2| a2e2c2 B2A2B2| c2A2A2 A4E2:| 
|: A2c2e2 A2c2e2| A2c2e2 d2c2B2| A2c2e2 f2g2a2| g2e2e2 e2f2g2| a6 g6| f6 e4c2| d2c2d2 B2e2d2| c2A2A2 A4E2:| 
D: Glenn Graham/Rodney MacDonald, Traditionally Rockin', TR1
